X: 40078
T: Thugamar Fein An Samhradh Linn
R: waltz
M: 3/4
K: Gmajor
A2 B2 d2|e4 e2|e2 f2 d2|e4 A2|
d3 e f2|g4 e2|f4 d2|B6|
g2 a2 g2|f4 d2|e4 A2|d4 B2|
A2 g2 f2|g4 e2|d4 B2|A6||
G3 A B2|A4 G2|E4 D2|D6|
G3 A B2|d4 c2|B3 A G2|A6|
d4 d2|c4 c2|B2 A2 G2|E4 D2|
G3 A B2|A4 G2|E4 D2|D6||

